!!!!SEGMENT: pl-wtm--r-274-m--002_moniuszko-stanislaw--cztery-piesni-nabozne-gloria.krn
!!!cenid: 18xx:1732
!!!COM: Moniuszko, Stanisław
!!!COM-rismID: pe30008351
!!!CDT: 1819/05/05-1872/06/04
!!!CNT: Polish
!!!OPR: Cztery pieśni nabożne
!!!OTL: Gloria
!!!OMV: 002
!!!PDT:
!!!AGN: Sacred; Mass
!!!SMS-siglum: PL-Wtm
!!!SMS-shelfmark: R 274/M
!!!SMS-shelfwork: 001-002 M
!!!SMS-variant:
!!!SMS-altvar:
!!!NIFC-rismSourceID: 1001097039
!!!NIFC-islandoraID:
!!!URL-pdf-islandora:
!!!URL-scan:
!!!ONB-nifc:
!!!AIN: 1 alto 1 empty 1 organ 1 tenor 1 vox
!!!key:
**kern	**kern	**dynam	**kern	**text	**dynam	**kern	**text	**dynam	**kern	**text	**dynam	**kern	**text	**dynam
*part5	*part5	*part5	*part4	*part4	*part4	*part3	*part3	*part3	*part2	*part2	*part2	*part1	*part1	*part1
*staff6	*staff5	*	*staff4	*staff4	*	*staff3	*staff3	*	*staff2	*staff2	*	*staff1	*staff1	*
*Iorgan	*Iempty	*	*Iempty	*	*	*Itenor	*	*	*Ialto	*	*	*Ivox	*	*
*I"Organ	*	*	*I"[Basso]	*	*	*I"[Tenore]	*	*	*I"[Alto]	*	*	*I"[Canto]	*	*
*I'Org.	*	*	*I'[B.]	*	*	*I'[T.]	*	*	*I'[A.]	*	*	*I'[C.]	*	*
*clefF4	*clefG2	*	*clefF4	*	*	*clefC4	*	*	*clefC3	*	*	*clefC1	*	*
*k[b-]	*k[b-]	*	*k[b-]	*	*	*k[b-]	*	*	*k[b-]	*	*	*k[b-]	*	*
*F:	*F:	*	*F:	*	*	*F:	*	*	*F:	*	*	*F:	*	*
*M2/2	*M2/2	*	*M2/2	*	*	*M2/2	*	*	*M2/2	*	*	*M2/2	*	*
*met(c|)	*met(c|)	*	*met(c|)	*	*	*met(c|)	*	*	*met(c|)	*	*	*met(c|)	*	*
=1	=1	=1	=1	=1	=1	=1	=1	=1	=1	=1	=1	=1	=1	=1
*^	*	*	*	*	*	*	*	*	*	*	*	*	*	*
!	!	!	!	!	!	!	!	!	!	!	!	!	!LO:TX:a:B:t=Allegro.	!	!
4A/	4F\	4f/ 4c/	.	4.F\	.	.	4.A\	To-	.	4.c\	To-	.	4.f/	To-	.
4ryy	4r	4r	.	.	.	.	.	.	.	.	.	.	.	.	.
.	.	.	.	8C/	.	.	8G\	-bie	.	8c\	-bie	.	8e/	-bie	.
4G/	4C\	4e/ 4c/	.	4C/	.	.	4G\	...	.	4c\	cześć	.	4e/	cześć!	.
4c/	4C\	4g/ 4e/	.	4r	.	.	4r	.	.	4r	.	.	4r	.	.
=2	=2	=2	=2	=2	=2	=2	=2	=2	=2	=2	=2	=2	=2	=2	=2
!	!	!	!	!	!	!	!	!	!	!	!	!	!LO:TX:t=P:problem=caudy drobnych nut nieregularnie	!	!
4c/	4C\	4b-/ 4g/ 4e/	.	4.C/	.	.	4.c\	.	.	4.e\	To-	.	4.b-\	To-	.
4r	4ryy	4r	.	.	.	.	.	.	.	.	.	.	.	.	.
.	.	.	.	8F\	.	.	8c\	.	.	8f\	-bie	.	8a\	-bie	.
4c/	4F\	4a/ 4f/	.	4F\	.	.	4c\	.	.	4f\	cześć	.	4a\	cześć!	.
4A/	4F\	4f/ 4c/	.	4r	.	.	4r	.	.	4r	.	.	4r	.	.
=3	=3	=3	=3	=3	=3	=3	=3	=3	=3	=3	=3	=3	=3	=3	=3
*	*	*^	*	*	*	*	*	*	*	*	*	*	*	*	*
!	!	!	!	!	!	!	!	!	!	!	!	!	!	!LO:TX:t=P:problem=pod nutami wykreślone słowo wszechmogący	!	!
4A/	4A\	4cc/	2ryy	.	4A\	.	.	4c\	.	.	4f\	To-	.	4cc\	.	.
2d/	4D\	4f/	.	.	4d\	.	.	4d\	.	.	4f\	-bie	.	8b-\L	.	.
.	.	.	.	.	.	.	.	.	.	.	.	.	.	8a\J	.	.
.	4BB-\	4g/	4f\	.	4B-\	.	.	4d\	.	.	4f\	cześć	.	4g\	.	.
4c/	4C\	4g/	4e\	.	4c\	.	.	4c\	.	.	4e\	i	.	4g\	.	.
=4	=4	=4	=4	=4	=4	=4	=4	=4	=4	=4	=4	=4	=4	=4	=4	=4
*	*2\right	*	*	*	*2\right	*	*	*2\right	*	*	*2\right	*	*	*2\right	*	*
!	!	!	!	!	!	!	!	!	!	!	!	!	!	!LO:TX:t=P:problem=2\right&colon; global	!	!
2c/	2F\	2a/	2f\	.	2F\	.	.	2c\	.	.	2f\	chwa-	.	2a\	.	.
4c/	4C\	4g/	4e\	.	4c\	.	.	4c\	.	.	4e\	-ła	.	4g\	.	.
4rc	4ryy	4ryy	4rc	.	4r	.	.	4r	.	.	4r	.	.	4r	.	.
*	*	*v	*v	*	*	*	*	*	*	*	*	*	*	*	*	*
=5	=5	=5	=5	=5	=5	=5	=5	=5	=5	=5	=5	=5	=5	=5	=5
4B-/	4G\	4g/ 4d/	.	4.G\	.	.	4.B-\	.	.	4.d\	To-	.	4.g/	.	.
4ryy	4r	4r	.	.	.	.	.	.	.	.	.	.	.	.	.
.	.	.	.	8D\	.	.	8A\	.	.	8d\	-bie	.	8f/	.	.
4A/	4D\	4f/ 4d/	.	4D\	.	.	4A\	.	.	4d\	cześć,	.	4f/	.	.
4F/	4r	4f/	.	4r	.	.	4r	.	.	4r	.	.	4r	.	.
=6	=6	=6	=6	=6	=6	=6	=6	=6	=6	=6	=6	=6	=6	=6	=6
4B-/	4BB-\	4dd/ 4f/	.	4.B-\	.	.	4.B-\	.	.	4.f\	To-	.	4.dd\	.	.
4ryy	4r	4r	.	.	.	.	.	.	.	.	.	.	.	.	.
.	.	.	.	8F\	.	.	8A\	.	.	8f\	-bie	.	8cc\	.	.
4A/	4F\	4cc/ 4f/	.	4F\	.	.	4A\	.	.	4f\	cześć	.	4cc\	.	.
4F/	4r	4f/	.	4r	.	.	4r	.	.	4r	.	.	4r	.	.
!!LO:LB:g=original
=7	=7	=7	=7	=7	=7	=7	=7	=7	=7	=7	=7	=7	=7	=7	=7
*	*	*^	*	*	*	*	*	*	*	*	*	*	*	*	*
4d/	2r	4ff/	2ryy	.	4d\	.	.	4d\	.	.	4f\	.	.	4ff\	wszech-	.
8c/L	.	8ee/L	.	.	8c\L	.	.	8c\L	.	.	4f\	.	.	8ee\L	-mo-	.
8B-/J	.	8dd/J	.	.	8B-\J	.	.	8B-\J	.	.	.	.	.	8dd\J	.	.
4A/	4AA\	4cc/	4f\	.	4A\	.	.	4A\	.	.	4f\	.	.	4cc\	-gą-	.
4B-/	4BB-\	4b-/	4g\ 4f\	.	4B-\	.	.	4B-\	.	.	4f\	.	.	4b-\	-cy	.
*	*	*v	*v	*	*	*	*	*	*	*	*	*	*	*	*	*
=8	=8	=8	=8	=8	=8	=8	=8	=8	=8	=8	=8	=8	=8	=8	=8
8rc	2C\	2a/ 2f/	.	(2c\	.	.	(2.c\	.	.	(2f\	.	.	(2a\	Bo-	.
(8A/L	.	.	.	.	.	.	.	.	.	.	.	.	.	.	.
8c/	.	.	.	.	.	.	.	.	.	.	.	.	.	.	.
8G/J)	.	.	.	.	.	.	.	.	.	.	.	.	.	.	.
8rc	2CC\	2g/ 2e/	.	2C/)	..	.	.	.	.	2e\)	...	.	2g\)	.	.
(8A/L	.	.	.	.	.	.	.	.	.	.	.	.	.	.	.
8c/	.	.	.	.	.	.	4B-\)	...	.	.	.	.	.	.	.
8G/J)	.	.	.	.	.	.	.	.	.	.	.	.	.	.	.
=9	=9	=9	=9	=9	=9	=9	=9	=9	=9	=9	=9	=9	=9	=9	=9
*	*	*^	*	*	*	*	*	*	*	*	*	*	*	*	*
8rc	1FF\	4f/	4f\	.	4F\	że!	.	4A\	że!	.	4f\	że!	.	4f/	-że!	.
(<8F/L	.	.	.	.	.	.	.	.	.	.	.	.	.	.	.	.
8A/	.	4r	2.ryy	.	4r	.	.	4r	.	.	4r	.	.	4r	.	.
8c/J	.	.	.	.	.	.	.	.	.	.	.	.	.	.	.	.
8A/L	.	2r	.	.	2r	.	.	4r	.	.	4r	.	.	4r	.	.
8c/	.	.	.	.	.	.	.	.	.	.	.	.	.	.	.	.
8A/	.	.	.	.	.	.	.	4F/	coś	.	4f\	cos	.	4f/	coś	.
8F/J)	.	.	.	.	.	.	.	.	.	.	.	.	.	.	.	.
*	*	*v	*v	*	*	*	*	*	*	*	*	*	*	*	*	*
=10	=10	=10	=10	=10	=10	=10	=10	=10	=10	=10	=10	=10	=10	=10	=10
*	*	*^	*	*	*	*	*	*	*	*	*	*	*	*	*
!	!	!	!	!	!	!	!	!	!	!	!	!	!	!	!	!LO:DY:a
8rc	1FF\	(<2ff/	1bn\ 1g#X\ 1f\	.	2r	.	.	(1Bn\	stwo-	>]	(1a-X\	stwo-	>]	4.ff\	stwo-	>
8F/L	.	.	.	.	.	.	.	.	.	.	.	.	.	.	.	.
8G#X/	.	.	.	.	.	.	.	.	.	.	.	.	.	.	.	.
8Bn/J	.	.	.	.	.	.	.	.	.	.	.	.	.	8ff\	-rzył	.
8G#/L	.	4ee/	.	.	4r	.	.	.	.	.	.	.	.	4ee\	wszy-	.
8B/	.	.	.	.	.	.	.	.	.	.	.	.	.	.	.	.
8G#/	.	4dd/	.	.	4F\	Coś	.	.	.	.	.	.	.	4dd\	-stkie	]
8F/J	.	.	.	.	.	.	.	.	.	.	.	.	.	.	.	.
=11	=11	=11	=11	=11	=11	=11	=11	=11	=11	=11	=11	=11	=11	=11	=11	=11
8rc	1FF\	2cc/)	1a\ 1f\	.	4.c\	stwo-	.	2c\)	-rzył	.	4an\)	-rzył	.	2cc\	rze-	.
8F/L	.	.	.	.	.	.	.	.	.	.	.	.	.	.	.	.
8A/	.	.	.	.	.	.	.	.	.	.	4r	.	.	.	.	.
8c/J	.	.	.	.	8c\	-rzył	.	.	.	.	.	.	.	.	.	.
8A/L	.	4a/	.	.	4A\	wszy-	.	4A\	wszy-	.	4f\	wszy-	.	4f/	-czy	.
8c/	.	.	.	.	.	.	.	.	.	.	.	.	.	.	.	.
8A/	.	4f/	.	.	4F\	-stkie	.	4F/	-stkie	.	4f\	-stkie	.	4f/	coś	.
8F/J	.	.	.	.	.	.	.	.	.	.	.	.	.	.	.	.
=12	=12	=12	=12	=12	=12	=12	=12	=12	=12	=12	=12	=12	=12	=12	=12	=12
!	!	!	!	!	!	!	!	!	!	!	!	!	!	!	!	!LO:DY:a
8rc	1FF\	(2ff/	1bn\ 1g#X\ 1f\	.	2F\	rze-	.	1Bn\	rze-	>]	1a-X\	rze-	>]	4.ff\	stwo-	>
8F/L	.	.	.	.	.	.	.	.	.	.	.	.	.	.	.	.
8G#X/	.	.	.	.	.	.	.	.	.	.	.	.	.	.	.	.
8Bn/J	.	.	.	.	.	.	.	.	.	.	.	.	.	8ff\	-rzył	.
8G#/L	.	4ee/	.	.	4F\	-czy	.	.	.	.	.	.	.	4ee\	wszy-	.
8B/	.	.	.	.	.	.	.	.	.	.	.	.	.	.	.	.
8G#/	.	4dd/)	.	.	4F\	coś	.	.	.	.	.	.	.	4dd\	-stkie	]
8F/J	.	.	.	.	.	.	.	.	.	.	.	.	.	.	.	.
*	*	*v	*v	*	*	*	*	*	*	*	*	*	*	*	*	*
!!LO:LB:g=original
=13	=13	=13	=13	=13	=13	=13	=13	=13	=13	=13	=13	=13	=13	=13	=13
8rc	2FF\	1cc/ 1a/ 1f/	.	4.c\	stwo-	.	2.c\	-czy	.	2.a\	-czy	.	2cc\	rze-	.
(<8F/L	.	.	.	.	.	.	.	.	.	.	.	.	.	.	.
8A/	.	.	.	.	.	.	.	.	.	.	.	.	.	.	.
8c/J)	.	.	.	8c\	-rzył	.	.	.	.	.	.	.	.	.	.
(<8A/L	2F\	.	.	4A\	wszy-	.	.	.	.	.	.	.	4cc\	-czy	.
8c/	.	.	.	.	.	.	.	.	.	.	.	.	.	.	.
8A/	.	.	.	4F\	-stkie	.	4A\	i	.	4a\	i	.	4cc\	i	.
8F/J)	.	.	.	.	.	.	.	.	.	.	.	.	.	.	.
=14	=14	=14	=14	=14	=14	=14	=14	=14	=14	=14	=14	=14	=14	=14	=14
8rc	1E\	1cc#X/ 1a/ 1g/	.	2E\	rze-	.	2A\	rzą-	.	2g\	rzą-	.	2cc#X\	rzą-	.
(<8G/L	.	.	.	.	.	.	.	.	.	.	.	.	.	.	.
8A/	.	.	.	.	.	.	.	.	.	.	.	.	.	.	.
8c#X/J	.	.	.	.	.	.	.	.	.	.	.	.	.	.	.
8e/L	.	.	.	4E\	-czy	.	4A\	-dzisz	.	4g\	-dzisz	.	4cc#\	-dzisz	.
8c#/	.	.	.	.	.	.	.	.	.	.	.	.	.	.	.
8A/	.	.	.	4E\	i	.	4A\	i	.	4g\	i	.	4cc#\	i	.
8G/J)	.	.	.	.	.	.	.	.	.	.	.	.	.	.	.
=15	=15	=15	=15	=15	=15	=15	=15	=15	=15	=15	=15	=15	=15	=15	=15
*	*	*^	*	*	*	*	*	*	*	*	*	*	*	*	*
*	*	*	*2\right	*	*	*	*	*	*	*	*	*	*	*	*	*
8rc	2D\	4dd/	2f\	.	2D/	rzą-	.	2A\	rzą-	.	2f\	rzą-	.	(4dd\	rzą-	.
(<8F/L	.	.	.	.	.	.	.	.	.	.	.	.	.	.	.	.
8A/	.	4ee/	.	.	.	.	.	.	.	.	.	.	.	4ee\)	.	.
8d/J)	.	.	.	.	.	.	.	.	.	.	.	.	.	.	.	.
8rc	2BB-\	4ff/	2dd\	.	4BB-/	-dzisz	.	4B-\	-dzisz	.	4d\	-dzisz	.	4ff\	-dzisz	.
(<8F/L	.	.	.	.	.	.	.	.	.	.	.	.	.	.	.	.
8B-/	.	4gg/	.	.	4BB-/	nad	.	4B-\	nad	.	4d\	nad	.	4gg\	nad	.
8d/J)	.	.	.	.	.	.	.	.	.	.	.	.	.	.	.	.
=16	=16	=16	=16	=16	=16	=16	=16	=16	=16	=16	=16	=16	=16	=16	=16	=16
!	!	!LO:N:vis=1	!	!	!	!	!	!	!	!	!	!	!	!	!	!
8rc	2C\	2ff/	2cc\ 2a\	.	1C/	nie-	.	(2A\	nie-	.	(4c\	nie-	.	(2ff\	nie-	.
(<8F/L	.	.	.	.	.	.	.	.	.	.	.	.	.	.	.	.
8A/	.	.	.	.	.	.	.	.	.	.	2cc\	.	.	.	.	.
8c/J)	.	.	.	.	.	.	.	.	.	.	.	.	.	.	.	.
8rc	2C\	2ee/	4cc\	.	.	.	.	2c\)	.	.	.	.	.	2ee\)	.	.
(<8G/L	.	.	.	.	.	.	.	.	.	.	.	.	.	.	.	.
8c/	.	.	4b-\	.	.	.	.	.	.	.	4b-\)	.	.	.	.	.
8C/J)	.	.	.	.	.	.	.	.	.	.	.	.	.	.	.	.
=17	=17	=17	=17	=17	=17	=17	=17	=17	=17	=17	=17	=17	=17	=17	=17	=17
8rc	2F\	1ff/	2a\	.	4F\	-mi..	.	4F/	-mi.	.	4a\	-mi	.	2ff\	-mi.	.
(<8F/L	.	.	.	.	.	.	.	.	.	.	.	.	.	.	.	.
8A/	.	.	.	.	4r	.	.	4r	.	.	4r	.	.	.	.	.
8c/J	.	.	.	.	.	.	.	.	.	.	.	.	.	.	.	.
!	!	!	!	!	!	!	!	!	!	!	!	!	!	!	!	!LO:DY:a
8A/L	2rEE	.	[>2f\	.	2r	.	.	2r	.	.	2r	.	.	4f/	Od-	pp
8c/	.	.	.	.	.	.	.	.	.	.	.	.	.	.	.	.
8A/	.	.	.	.	.	.	.	.	.	.	.	.	.	4f/	-wróć	.
8F/J)	.	.	.	.	.	.	.	.	.	.	.	.	.	.	.	.
=18	=18	=18	=18	=18	=18	=18	=18	=18	=18	=18	=18	=18	=18	=18	=18	=18
!	!	!	!	!	!	!	!LO:DY:rj	!	!	!LO:DY:rj	!	!	!LO:DY:rj	!	!	!
8rc	[1DD-X\	(<2ff/	2f\]	pp	[1D-X\	spraw	pp	[1A-X\	spraw	pp	1f\	spraw	pp	2ff\	od	.
(<8F/L	.	.	.	.	.	.	.	.	.	.	.	.	.	.	.	.
8A-X/	.	.	.	.	.	.	.	.	.	.	.	.	.	.	.	.
8d-X/J)	.	.	.	.	.	.	.	.	.	.	.	.	.	.	.	.
8rc	.	4ee-X/	2rc	.	.	.	.	.	.	.	.	.	.	4ee-X\	nas	.
(<8F/L	.	.	.	.	.	.	.	.	.	.	.	.	.	.	.	.
8A-/	.	4dd/)	.	.	.	.	.	.	.	.	.	.	.	4dd-X\	co	.
8d-/J)	.	.	.	.	.	.	.	.	.	.	.	.	.	.	.	.
=19	=19	=19	=19	=19	=19	=19	=19	=19	=19	=19	=19	=19	=19	=19	=19	=19
8rc	1DD-\_	(2.cc/	2g-X\	.	1D-\]	.	.	1A-\_	...	.	1g-X\	niech	.	2cc\	po-	.
(<8E-X/L	.	.	.	.	.	.	.	.	.	.	.	.	.	.	.	.
8A-X/	.	.	.	.	.	.	.	.	.	.	.	.	.	.	.	.
8c/J)	.	.	.	.	.	.	.	.	.	.	.	.	.	.	.	.
8rc	.	.	4e\	.	.	.	.	.	.	.	.	.	.	4a-X\	-koj	.
(<8c/L	.	.	.	.	.	.	.	.	.	.	.	.	.	.	.	.
8A-/	.	4a-X/)	[4a-\	.	.	.	.	.	.	.	.	.	.	4r	.	.
8G-X/J)	.	.	.	.	.	.	.	.	.	.	.	.	.	.	.	.
=20	=20	=20	=20	=20	=20	=20	=20	=20	=20	=20	=20	=20	=20	=20	=20	=20
8rc	1DD-\]	(<2ff/	2a-\] 2f\	.	2.D\	.	.	1A-\_	.	.	1f\	po-	.	4.ff\	du-	.
(<8F/L	.	.	.	.	.	.	.	.	.	.	.	.	.	.	.	.
8A-X/	.	.	.	.	.	.	.	.	.	.	.	.	.	.	.	.
8d-X/J)	.	.	.	.	.	.	.	.	.	.	.	.	.	8ff\	-szy	.
8rc	.	4ee-X/	2rc	.	.	.	.	.	.	.	.	.	.	4ee-X\	mię-	.
(<8F/L	.	.	.	.	.	.	.	.	.	.	.	.	.	.	.	.
8A-/	.	4dd-X/)	.	.	4F\	niech	.	.	.	.	.	.	.	4dd-X\	-szać	.
8d-/J)	.	.	.	.	.	.	.	.	.	.	.	.	.	.	.	.
!!LO:LB:g=original
=21	=21	=21	=21	=21	=21	=21	=21	=21	=21	=21	=21	=21	=21	=21	=21	=21
8rc	2AA-X\	2.cc/	(>2e-X\	.	2A-X\	po-	.	2.A-\]	...	.	2.e-X\	-koj	.	2cc\	mo-	.
(<8C/L	.	.	.	.	.	.	.	.	.	.	.	.	.	.	.	.
8E-X/	.	.	.	.	.	.	.	.	.	.	.	.	.	.	.	.
8A-X/J)	.	.	.	.	.	.	.	.	.	.	.	.	.	.	.	.
8rc	4AA-\	.	4c\	.	4c\	-koj	.	.	.	.	.	.	.	4cc\	-że	.
(<8E-/L	.	.	.	.	.	.	.	.	.	.	.	.	.	.	.	.
8A-/	4AA-\	4cc/	4a-X\)	.	4A-\	niech	.	4A-X\	niech	.	4e-\	niech	.	4cc\	niech	.
8c/J)	.	.	.	.	.	.	.	.	.	.	.	.	.	.	.	.
=22	=22	=22	=22	=22	=22	=22	=22	=22	=22	=22	=22	=22	=22	=22	=22	=22
!	!	!	!	!	!	!	!LO:DY:rj	!	!	!LO:DY:rj	!	!	!LO:DY:rj	!	!	!LO:DY:rj
8rc	1GG\	(1b-/	1e-X\	.	1G\	...	p	1B-\	...	p	1e-X\	...	p	(2.ee-X\	po-	p
(<8E-X/L	.	.	.	.	.	.	.	.	.	.	.	.	.	.	.	.
8G/	.	.	.	.	.	.	.	.	.	.	.	.	.	.	.	.
8B-/J	.	.	.	.	.	.	.	.	.	.	.	.	.	.	.	.
8e-X/L	.	.	.	.	.	.	.	.	.	.	.	.	.	.	.	.
8B-/	.	.	.	.	.	.	.	.	.	.	.	.	.	.	.	.
8G/	.	.	.	.	.	.	.	.	.	.	.	.	.	4dd-X\)	.	.
[<8E-/J)	.	.	.	.	.	.	.	.	.	.	.	.	.	.	.	.
*	*	*v	*v	*	*	*	*	*	*	*	*	*	*	*	*	*
=23	=23	=23	=23	=23	=23	=23	=23	=23	=23	=23	=23	=23	=23	=23	=23
1A-X/ 1E-/_	2AA-X\	8cc/)	.	4A-X\	.	.	4A-X\	.	.	4e-X\	.	.	4cc\	-koj	.
.	.	(8c/L	.	.	.	.	.	.	.	.	.	.	.	.	.
.	.	8e-X/	.	4r	.	.	4r	.	.	4r	.	.	4r	.	.
.	.	8a-X/J	.	.	.	.	.	.	.	.	.	.	.	.	.
!	!	!	!	!	!	!LO:DY:b	!	!	!	!	!	!LO:DY:a	!	!	!LO:DY:a
.	4AA-\	8cc/L	.	2A-\	.	pp	2A-\	.	pp	2e-\	.	pp	2cc\	niech	pp
.	.	8a-/	.	.	.	.	.	.	.	.	.	.	.	.	.
.	4AA-\	8e-/	.	.	.	.	.	.	.	.	.	.	.	.	.
.	.	8f/J)	.	.	.	.	.	.	.	.	.	.	.	.	.
=24	=24	=24	=24	=24	=24	=24	=24	=24	=24	=24	=24	=24	=24	=24	=24
8B-/ 8E-/]	1GG\	2e-X/	.	1G\	.	.	1B-\	.	.	1e-X\	.	.	(2.ee-X\	po-	.
(<8E-y/L	.	.	.	.	.	.	.	.	.	.	.	.	.	.	.
8G/	.	.	.	.	.	.	.	.	.	.	.	.	.	.	.
8B-/J	.	.	.	.	.	.	.	.	.	.	.	.	.	.	.
8e-y/L	.	2r	.	.	.	.	.	.	.	.	.	.	.	.	.
8B-/	.	.	.	.	.	.	.	.	.	.	.	.	.	.	.
8G/	.	.	.	.	.	.	.	.	.	.	.	.	4dd-X\)	.	.
8E-/J)	.	.	.	.	.	.	.	.	.	.	.	.	.	.	.
*v	*v	*	*	*	*	*	*	*	*	*	*	*	*	*	*
=25	=25	=25	=25	=25	=25	=25	=25	=25	=25	=25	=25	=25	=25	=25
2A-X\ 2AA-X\	8r	.	2A-X\	.	.	2A-X\	.	.	2e-X\	.	.	2cc\	-koj	.
.	(8c/L	.	.	.	.	.	.	.	.	.	.	.	.	.
.	8e-X/	.	.	.	.	.	.	.	.	.	.	.	.	.
.	8a-X/J	.	.	.	.	.	.	.	.	.	.	.	.	.
8A-\	8cc/)	.	4r	.	.	4r	.	.	4r	.	.	4r	.	.
8r	8r	.	.	.	.	.	.	.	.	.	.	.	.	.
4c\ 4A-\	4cc/ 4e-/	f	4A-\	.	.	4c\	.	.	4e-\	.	.	4cc\	za-	.
=26	=26	=26	=26	=26	=26	=26	=26	=26	=26	=26	=26	=26	=26	=26
*^	*	*	*	*	*	*	*	*	*	*	*	*	*	*
!	!	!	!	!	!	!	!	!	!	!	!	!	!	!	!LO:DY:a
2.B-/	2G\	2.cc#X/ 2.en/	.	2G\	.	<	2B-\	.	<	2en\	.	<	2cc#X\	-kwi-	<
.	4GG\	.	.	4G\	.	.	4B-\	.	.	4e\	.	.	4cc#\	-tnie	.
4B-/	4G\	4cc#/ 4e/	.	4G\	.	.	4B-\	.	.	4e\	.	.	4cc#\	za-	.
=27	=27	=27	=27	=27	=27	=27	=27	=27	=27	=27	=27	=27	=27	=27	=27
*	*	*^	*	*	*	*	*	*	*	*	*	*	*	*	*
4d/ 4B-/	4F\	4dd/	4d/	.	4F\	.	.	4A/	.	.	4d\	.	.	(4dd\	-kwit-	.
4c#X/ 4G/	4E\	4ee/	2a\	.	4E\	.	.	4G/	.	.	4c#X\	.	.	4ee\)	.	.
(4d/ 4F/	4D\	4ff/	.	.	4D\	.	.	4F/	.	.	4d\	.	.	4ff\	-nie	.
4d/ 4B-/)	4BB-\	4gg/	4b-\	.	4BB-/	.	[	4d\	.	[	4b-\	.	[	4gg\	na	[
!!LO:PB:g=original
=28	=28	=28	=28	=28	=28	=28	=28	=28	=28	=28	=28	=28	=28	=28	=28	=28
2c/ 2A/ 2F/	1C\	2.aa/	2cc\ 2a\	.	1C/	.	.	1c\	.	.	2a\	.	.	(2.aa\	Zie-	.
2c/ 2G/	.	.	2ee\ 2b-\	.	.	.	.	.	.	.	2b-\	.	.	.	.	.
.	.	4gg/	.	.	.	.	.	.	.	.	.	.	.	4gg\)	.	.
=29	=29	=29	=29	=29	=29	=29	=29	=29	=29	=29	=29	=29	=29	=29	=29	=29
4c/	4F\	4ff/	4a\	.	2F\	.	.	2c\	.	.	2a\	.	.	2ff\	-mi	.
4c/	4rEE	4cc/	4cc\	.	.	.	.	.	.	.	.	.	.	.	.	.
4A/	2rEE	4a/	4a\	.	4r	.	.	4r	.	.	4r	.	.	4r	.	.
4F/	.	4f/	4f\	.	4F\	.	.	4F/	.	.	4f\	.	.	4f/	niech	.
*v	*v	*	*	*	*	*	*	*	*	*	*	*	*	*	*	*
*	*v	*v	*	*	*	*	*	*	*	*	*	*	*	*	*
=30	=30	=30	=30	=30	=30	=30	=30	=30	=30	=30	=30	=30	=30	=30
1B-\ 1BB-\	[1dd/ [1b-/ [1f/ [1d/	.	1BB-/	.	.	1B-\	.	.	1f\	.	.	1dd\	po-	.
=31	=31	=31	=31	=31	=31	=31	=31	=31	=31	=31	=31	=31	=31	=31
*^	*	*	*	*	*	*	*	*	*	*	*	*	*	*
1F/	1F\	1dd/_ 1b-/_ 1f/_ 1d/_	.	2F\	.	.	2d\	.	.	2f\	.	.	2dd\	-koj	.
.	.	.	.	2F\	.	.	2f\	.	.	2b-\	.	.	2dd\	za-	.
*v	*v	*	*	*	*	*	*	*	*	*	*	*	*	*	*
=32	=32	=32	=32	=32	=32	=32	=32	=32	=32	=32	=32	=32	=32	=32
(1B-\ 1D\	(>1dd/] 1b-/] 1f/] 1d/]	.	1B-\	.	.	1d\	.	.	1b-\	.	.	1ff\	-kwit-	.
=33	=33	=33	=33	=33	=33	=33	=33	=33	=33	=33	=33	=33	=33	=33
*^	*	*	*	*	*	*	*	*	*	*	*	*	*	*
!	!	!LO:TX:t=P:problem=przed nutą skreślenie	!	!	!	!	!	!	!	!	!	!	!	!	!
2c/ 2A/	1BB-\	2cc/ 2a/	.	2F\	.	.	2c\	.	.	2a\	.	.	2f/	-nie	.
2B-/ 2G/)	.	2b#X/ 2g/)	.	2F\	.	.	2B-\	.	.	2g\	.	.	2g/	na	.
=34	=34	=34	=34	=34	=34	=34	=34	=34	=34	=34	=34	=34	=34	=34	=34
1c/ 1A/ 1F/;	1FF\	1cc/ 1a/ 1f/;	.	1F\;	.	<[	1c\;	.	<[	1f\;	.	<[	1a\;	zie-	<[
.	.	.	.	.	.	>]	.	.	>]	.	.	>]	.	.	>]
=35	=35	=35	=35	=35	=35	=35	=35	=35	=35	=35	=35	=35	=35	=35	=35
2F/ 2C/	2FF\	2f/ 2A/	.	2FF/	.	.	2A\	.	.	2c\	.	.	2f/	-mi!	.
2rc	2rEEyy	2r	.	2r	.	.	2r	.	.	2r	.	.	2r	.	.
*v	*v	*	*	*	*	*	*	*	*	*	*	*	*	*	*
==	==	==	==	==	==	==	==	==	==	==	==	==	==	==
*-	*-	*-	*-	*-	*-	*-	*-	*-	*-	*-	*-	*-	*-	*-
!!!system-decoration: [(s1,s2,s3,s4)]{(s5,s6)}
!!!RDF**kern: > = above
!!!RDF**kern: < = below
!!!EED: Leszek Kubiak
!!!EEV: 2021-04-20
!!!ENC: Mateusz Solarz
!!!END: 2021-04-02
!!!YEC: Copyright 2022 Narodowy Instytut Fryderyka Chopina (https://polishscores.org)
!!!YEM: Licence CC BY 4.0 (https://creativecommons.org/licenses/by/4.0)
